images/50982605.svg

<?xml version="1.0" encoding="UTF-8"?>
<svg xmlns="http://www.w3.org/2000/svg" xmlns:xlink="http://www.w3.org/1999/xlink" width="300pt" height="300pt" viewBox="0 0 300 300" version="1.1">
<defs>
<g>
<symbol overflow="visible" id="glyph0-0">
<path style="stroke:none;" d="M 0.453125 1.59375 L 0.453125 -6.34375 L 4.953125 -6.34375 L 4.953125 1.59375 Z M 0.953125 1.09375 L 4.453125 1.09375 L 4.453125 -5.84375 L 0.953125 -5.84375 Z M 0.953125 1.09375 "/>
</symbol>
<symbol overflow="visible" id="glyph0-1">
<path style="stroke:none;" d="M 3.546875 -5.953125 C 2.898438 -5.953125 2.382812 -5.710938 2 -5.234375 C 1.625 -4.753906 1.4375 -4.101562 1.4375 -3.28125 C 1.4375 -2.445312 1.625 -1.789062 2 -1.3125 C 2.382812 -0.832031 2.898438 -0.59375 3.546875 -0.59375 C 4.191406 -0.59375 4.703125 -0.832031 5.078125 -1.3125 C 5.453125 -1.789062 5.640625 -2.445312 5.640625 -3.28125 C 5.640625 -4.101562 5.453125 -4.753906 5.078125 -5.234375 C 4.703125 -5.710938 4.191406 -5.953125 3.546875 -5.953125 Z M 3.546875 -6.6875 C 4.460938 -6.6875 5.195312 -6.375 5.75 -5.75 C 6.300781 -5.132812 6.578125 -4.3125 6.578125 -3.28125 C 6.578125 -2.238281 6.300781 -1.410156 5.75 -0.796875 C 5.195312 -0.179688 4.460938 0.125 3.546875 0.125 C 2.617188 0.125 1.878906 -0.179688 1.328125 -0.796875 C 0.773438 -1.410156 0.5 -2.238281 0.5 -3.28125 C 0.5 -4.3125 0.773438 -5.132812 1.328125 -5.75 C 1.878906 -6.375 2.617188 -6.6875 3.546875 -6.6875 Z M 3.546875 -6.6875 "/>
</symbol>
<symbol overflow="visible" id="glyph0-2">
<path style="stroke:none;" d="M 0.890625 -6.5625 L 2.078125 -6.5625 L 4.984375 -1.078125 L 4.984375 -6.5625 L 5.84375 -6.5625 L 5.84375 0 L 4.65625 0 L 1.75 -5.484375 L 1.75 0 L 0.890625 0 Z M 0.890625 -6.5625 "/>
</symbol>
<symbol overflow="visible" id="glyph0-3">
<path style="stroke:none;" d="M 0.890625 -6.5625 L 1.765625 -6.5625 L 1.765625 -3.875 L 5 -3.875 L 5 -6.5625 L 5.890625 -6.5625 L 5.890625 0 L 5 0 L 5 -3.125 L 1.765625 -3.125 L 1.765625 0 L 0.890625 0 Z M 0.890625 -6.5625 "/>
</symbol>
</g>
</defs>
<g id="surface18761">
<rect x="0" y="0" width="300" height="300" style="fill:rgb(100%,100%,100%);fill-opacity:1;stroke:none;"/>
<path style="fill:none;stroke-width:1.2;stroke-linecap:butt;stroke-linejoin:miter;stroke:rgb(100%,0%,0%);stroke-opacity:1;stroke-miterlimit:10;" d="M 129.394531 123.859375 L 126.523438 132.648438 "/>
<path style="fill:none;stroke-width:1.2;stroke-linecap:butt;stroke-linejoin:miter;stroke:rgb(0%,0%,0%);stroke-opacity:1;stroke-miterlimit:10;" d="M 126.523438 132.648438 L 123.652344 141.4375 "/>
<path style="fill:none;stroke-width:1.2;stroke-linecap:butt;stroke-linejoin:miter;stroke:rgb(100%,0%,0%);stroke-opacity:1;stroke-miterlimit:10;" d="M 133.53125 125.210938 L 130.660156 134 "/>
<path style="fill:none;stroke-width:1.2;stroke-linecap:butt;stroke-linejoin:miter;stroke:rgb(0%,0%,0%);stroke-opacity:1;stroke-miterlimit:10;" d="M 130.660156 134 L 127.789062 142.789062 "/>
<path style=" stroke:none;fill-rule:nonzero;fill:rgb(100%,100%,100%);fill-opacity:1;" d="M 127.464844 119.035156 L 135.464844 119.035156 L 135.464844 130.035156 L 127.464844 130.035156 Z M 127.464844 119.035156 "/>
<g style="fill:rgb(100%,0%,0%);fill-opacity:1;">
  <use xlink:href="#glyph0-1" x="127.464844" y="127.698242"/>
</g>
<path style="fill:none;stroke-width:1.2;stroke-linecap:butt;stroke-linejoin:miter;stroke:rgb(0%,0%,0%);stroke-opacity:1;stroke-miterlimit:10;" d="M 125.71875 142.113281 L 131.894531 148.996094 "/>
<path style="fill:none;stroke-width:1.2;stroke-linecap:butt;stroke-linejoin:miter;stroke:rgb(0%,0%,100%);stroke-opacity:1;stroke-miterlimit:10;" d="M 131.894531 148.996094 L 138.070312 155.875 "/>
<path style="fill:none;stroke-width:1.2;stroke-linecap:butt;stroke-linejoin:miter;stroke:rgb(0%,0%,0%);stroke-opacity:1;stroke-miterlimit:10;" d="M 125.71875 142.113281 L 107.625 145.925781 "/>
<path style="fill:none;stroke-width:1.2;stroke-linecap:butt;stroke-linejoin:miter;stroke:rgb(0%,0%,100%);stroke-opacity:1;stroke-miterlimit:10;" d="M 138.070312 155.875 L 147.117188 153.96875 "/>
<path style="fill:none;stroke-width:1.2;stroke-linecap:butt;stroke-linejoin:miter;stroke:rgb(0%,0%,0%);stroke-opacity:1;stroke-miterlimit:10;" d="M 147.117188 153.96875 L 156.164062 152.0625 "/>
<path style=" stroke:none;fill-rule:nonzero;fill:rgb(100%,100%,100%);fill-opacity:1;" d="M 131.070312 150.375 L 145.070312 150.375 L 145.070312 161.375 L 131.070312 161.375 Z M 131.070312 150.375 "/>
<g style="fill:rgb(0%,0%,100%);fill-opacity:1;">
  <use xlink:href="#glyph0-2" x="131.070312" y="159.038086"/>
  <use xlink:href="#glyph0-3" x="138.047852" y="159.038086"/>
</g>
<path style="fill:none;stroke-width:1.2;stroke-linecap:butt;stroke-linejoin:miter;stroke:rgb(0%,0%,0%);stroke-opacity:1;stroke-miterlimit:10;" d="M 156.164062 152.0625 L 159.9375 143.621094 "/>
<path style="fill:none;stroke-width:1.2;stroke-linecap:butt;stroke-linejoin:miter;stroke:rgb(0%,0%,100%);stroke-opacity:1;stroke-miterlimit:10;" d="M 159.9375 143.621094 L 163.714844 135.183594 "/>
<path style="fill:none;stroke-width:1.2;stroke-linecap:butt;stroke-linejoin:miter;stroke:rgb(0%,0%,0%);stroke-opacity:1;stroke-miterlimit:10;" d="M 169.882812 164.457031 L 156.164062 152.0625 "/>
<path style="fill:none;stroke-width:1.2;stroke-linecap:butt;stroke-linejoin:miter;stroke:rgb(0%,0%,0%);stroke-opacity:1;stroke-miterlimit:10;" d="M 171.429688 159.992188 L 160.453125 150.074219 "/>
<path style="fill:none;stroke-width:1.2;stroke-linecap:butt;stroke-linejoin:miter;stroke:rgb(0%,0%,100%);stroke-opacity:1;stroke-miterlimit:10;" d="M 163.714844 135.183594 L 172.90625 136.164062 "/>
<path style="fill:none;stroke-width:1.2;stroke-linecap:butt;stroke-linejoin:miter;stroke:rgb(0%,0%,0%);stroke-opacity:1;stroke-miterlimit:10;" d="M 172.90625 136.164062 L 182.101562 137.144531 "/>
<path style="fill:none;stroke-width:1.2;stroke-linecap:butt;stroke-linejoin:miter;stroke:rgb(0%,0%,100%);stroke-opacity:1;stroke-miterlimit:10;" d="M 165.089844 139.707031 L 172.445312 140.492188 "/>
<path style="fill:none;stroke-width:1.2;stroke-linecap:butt;stroke-linejoin:miter;stroke:rgb(0%,0%,0%);stroke-opacity:1;stroke-miterlimit:10;" d="M 172.445312 140.492188 L 179.800781 141.277344 "/>
<path style=" stroke:none;fill-rule:nonzero;fill:rgb(100%,100%,100%);fill-opacity:1;" d="M 160.714844 129.683594 L 167.714844 129.683594 L 167.714844 140.683594 L 160.714844 140.683594 Z M 160.714844 129.683594 "/>
<g style="fill:rgb(0%,0%,100%);fill-opacity:1;">
  <use xlink:href="#glyph0-2" x="160.714844" y="138.34668"/>
</g>
<path style="fill:none;stroke-width:1.2;stroke-linecap:butt;stroke-linejoin:miter;stroke:rgb(0%,0%,0%);stroke-opacity:1;stroke-miterlimit:10;" d="M 182.101562 137.144531 L 184.007812 146.195312 "/>
<path style="fill:none;stroke-width:1.2;stroke-linecap:butt;stroke-linejoin:miter;stroke:rgb(0%,0%,100%);stroke-opacity:1;stroke-miterlimit:10;" d="M 184.007812 146.195312 L 185.914062 155.242188 "/>
<path style="fill:none;stroke-width:1.2;stroke-linecap:butt;stroke-linejoin:miter;stroke:rgb(0%,0%,0%);stroke-opacity:1;stroke-miterlimit:10;" d="M 195.863281 124.796875 L 182.101562 137.144531 "/>
<path style="fill:none;stroke-width:1.2;stroke-linecap:butt;stroke-linejoin:miter;stroke:rgb(0%,0%,100%);stroke-opacity:1;stroke-miterlimit:10;" d="M 185.914062 155.242188 L 194.703125 158.113281 "/>
<path style="fill:none;stroke-width:1.2;stroke-linecap:butt;stroke-linejoin:miter;stroke:rgb(0%,0%,0%);stroke-opacity:1;stroke-miterlimit:10;" d="M 194.703125 158.113281 L 203.492188 160.984375 "/>
<path style="fill:none;stroke-width:1.2;stroke-linecap:butt;stroke-linejoin:miter;stroke:rgb(0%,0%,100%);stroke-opacity:1;stroke-miterlimit:10;" d="M 185.914062 155.242188 L 177.898438 159.851562 "/>
<path style="fill:none;stroke-width:1.2;stroke-linecap:butt;stroke-linejoin:miter;stroke:rgb(0%,0%,0%);stroke-opacity:1;stroke-miterlimit:10;" d="M 177.898438 159.851562 L 169.882812 164.457031 "/>
<path style=" stroke:none;fill-rule:nonzero;fill:rgb(100%,100%,100%);fill-opacity:1;" d="M 182.914062 149.742188 L 189.914062 149.742188 L 189.914062 160.742188 L 182.914062 160.742188 Z M 182.914062 149.742188 "/>
<g style="fill:rgb(0%,0%,100%);fill-opacity:1;">
  <use xlink:href="#glyph0-2" x="182.914062" y="158.405273"/>
</g>
<path style="fill:none;stroke-width:1.2;stroke-linecap:butt;stroke-linejoin:miter;stroke:rgb(0%,0%,0%);stroke-opacity:1;stroke-miterlimit:10;" d="M 203.492188 160.984375 L 217.253906 148.632812 "/>
<path style="fill:none;stroke-width:1.2;stroke-linecap:butt;stroke-linejoin:miter;stroke:rgb(0%,0%,0%);stroke-opacity:1;stroke-miterlimit:10;" d="M 201.960938 156.511719 L 212.972656 146.632812 "/>
<path style="fill:none;stroke-width:1.2;stroke-linecap:butt;stroke-linejoin:miter;stroke:rgb(0%,0%,0%);stroke-opacity:1;stroke-miterlimit:10;" d="M 217.253906 148.632812 L 226.042969 151.507812 "/>
<path style="fill:none;stroke-width:1.2;stroke-linecap:butt;stroke-linejoin:miter;stroke:rgb(0%,0%,100%);stroke-opacity:1;stroke-miterlimit:10;" d="M 226.042969 151.507812 L 234.832031 154.378906 "/>
<path style="fill:none;stroke-width:1.2;stroke-linecap:butt;stroke-linejoin:miter;stroke:rgb(0%,0%,0%);stroke-opacity:1;stroke-miterlimit:10;" d="M 217.253906 148.632812 L 213.441406 130.539062 "/>
<path style="fill:none;stroke-width:1.2;stroke-linecap:butt;stroke-linejoin:miter;stroke:rgb(0%,0%,100%);stroke-opacity:1;stroke-miterlimit:10;" d="M 234.832031 154.378906 L 242.320312 148.957031 "/>
<path style="fill:none;stroke-width:1.2;stroke-linecap:butt;stroke-linejoin:miter;stroke:rgb(0%,0%,0%);stroke-opacity:1;stroke-miterlimit:10;" d="M 242.320312 148.957031 L 249.808594 143.535156 "/>
<path style="fill:none;stroke-width:1.2;stroke-linecap:butt;stroke-linejoin:miter;stroke:rgb(0%,0%,0%);stroke-opacity:1;stroke-miterlimit:10;" d="M 240.515625 171.972656 L 237.671875 163.175781 "/>
<path style="fill:none;stroke-width:1.2;stroke-linecap:butt;stroke-linejoin:miter;stroke:rgb(0%,0%,100%);stroke-opacity:1;stroke-miterlimit:10;" d="M 237.671875 163.175781 L 234.832031 154.378906 "/>
<path style=" stroke:none;fill-rule:nonzero;fill:rgb(100%,100%,100%);fill-opacity:1;" d="M 231.832031 148.878906 L 238.832031 148.878906 L 238.832031 159.878906 L 231.832031 159.878906 Z M 231.832031 148.878906 "/>
<g style="fill:rgb(0%,0%,100%);fill-opacity:1;">
  <use xlink:href="#glyph0-2" x="231.832031" y="157.541992"/>
</g>
<path style="fill:none;stroke-width:1.2;stroke-linecap:butt;stroke-linejoin:miter;stroke:rgb(0%,0%,0%);stroke-opacity:1;stroke-miterlimit:10;" d="M 249.808594 143.535156 L 264.75 154.429688 "/>
<path style="fill:none;stroke-width:1.2;stroke-linecap:butt;stroke-linejoin:miter;stroke:rgb(0%,0%,0%);stroke-opacity:1;stroke-miterlimit:10;" d="M 248.738281 148.140625 L 260.691406 156.855469 "/>
<path style="fill:none;stroke-width:1.2;stroke-linecap:butt;stroke-linejoin:miter;stroke:rgb(0%,0%,0%);stroke-opacity:1;stroke-miterlimit:10;" d="M 264.75 154.429688 L 261.878906 163.21875 "/>
<path style="fill:none;stroke-width:1.2;stroke-linecap:butt;stroke-linejoin:miter;stroke:rgb(0%,0%,100%);stroke-opacity:1;stroke-miterlimit:10;" d="M 261.878906 163.21875 L 259.007812 172.003906 "/>
<path style="fill:none;stroke-width:1.2;stroke-linecap:butt;stroke-linejoin:miter;stroke:rgb(0%,0%,100%);stroke-opacity:1;stroke-miterlimit:10;" d="M 259.007812 172.003906 L 249.761719 171.988281 "/>
<path style="fill:none;stroke-width:1.2;stroke-linecap:butt;stroke-linejoin:miter;stroke:rgb(0%,0%,0%);stroke-opacity:1;stroke-miterlimit:10;" d="M 249.761719 171.988281 L 240.515625 171.972656 "/>
<path style="fill:none;stroke-width:1.2;stroke-linecap:butt;stroke-linejoin:miter;stroke:rgb(0%,0%,100%);stroke-opacity:1;stroke-miterlimit:10;" d="M 257.164062 167.652344 L 249.769531 167.640625 "/>
<path style="fill:none;stroke-width:1.2;stroke-linecap:butt;stroke-linejoin:miter;stroke:rgb(0%,0%,0%);stroke-opacity:1;stroke-miterlimit:10;" d="M 249.769531 167.640625 L 242.371094 167.625 "/>
<path style=" stroke:none;fill-rule:nonzero;fill:rgb(100%,100%,100%);fill-opacity:1;" d="M 256.007812 166.503906 L 263.007812 166.503906 L 263.007812 177.503906 L 256.007812 177.503906 Z M 256.007812 166.503906 "/>
<g style="fill:rgb(0%,0%,100%);fill-opacity:1;">
  <use xlink:href="#glyph0-2" x="256.007812" y="175.166992"/>
</g>
<path style="fill:none;stroke-width:1.2;stroke-linecap:butt;stroke-linejoin:miter;stroke:rgb(0%,0%,0%);stroke-opacity:1;stroke-miterlimit:10;" d="M 213.441406 130.539062 L 195.863281 124.796875 "/>
<path style="fill:none;stroke-width:1.2;stroke-linecap:butt;stroke-linejoin:miter;stroke:rgb(0%,0%,0%);stroke-opacity:1;stroke-miterlimit:10;" d="M 210.332031 134.101562 L 196.269531 129.507812 "/>
<path style="fill:none;stroke-width:1.2;stroke-linecap:butt;stroke-linejoin:miter;stroke:rgb(0%,0%,0%);stroke-opacity:1;stroke-miterlimit:10;" d="M 107.625 145.925781 L 95.277344 132.164062 "/>
<path style="fill:none;stroke-width:1.2;stroke-linecap:butt;stroke-linejoin:miter;stroke:rgb(0%,0%,0%);stroke-opacity:1;stroke-miterlimit:10;" d="M 103.152344 147.457031 L 93.273438 136.445312 "/>
<path style="fill:none;stroke-width:1.2;stroke-linecap:butt;stroke-linejoin:miter;stroke:rgb(0%,0%,0%);stroke-opacity:1;stroke-miterlimit:10;" d="M 101.882812 163.503906 L 107.625 145.925781 "/>
<path style="fill:none;stroke-width:1.2;stroke-linecap:butt;stroke-linejoin:miter;stroke:rgb(0%,0%,0%);stroke-opacity:1;stroke-miterlimit:10;" d="M 95.277344 132.164062 L 77.183594 135.980469 "/>
<path style="fill:none;stroke-width:1.2;stroke-linecap:butt;stroke-linejoin:miter;stroke:rgb(0%,0%,0%);stroke-opacity:1;stroke-miterlimit:10;" d="M 77.183594 135.980469 L 71.4375 153.554688 "/>
<path style="fill:none;stroke-width:1.2;stroke-linecap:butt;stroke-linejoin:miter;stroke:rgb(0%,0%,0%);stroke-opacity:1;stroke-miterlimit:10;" d="M 80.742188 139.085938 L 76.148438 153.148438 "/>
<path style="fill:none;stroke-width:1.2;stroke-linecap:butt;stroke-linejoin:miter;stroke:rgb(0%,0%,0%);stroke-opacity:1;stroke-miterlimit:10;" d="M 71.4375 153.554688 L 83.789062 167.316406 "/>
<path style="fill:none;stroke-width:1.2;stroke-linecap:butt;stroke-linejoin:miter;stroke:rgb(0%,0%,0%);stroke-opacity:1;stroke-miterlimit:10;" d="M 71.4375 153.554688 L 53.34375 157.371094 "/>
<path style="fill:none;stroke-width:1.2;stroke-linecap:butt;stroke-linejoin:miter;stroke:rgb(0%,0%,0%);stroke-opacity:1;stroke-miterlimit:10;" d="M 83.789062 167.316406 L 101.882812 163.503906 "/>
<path style="fill:none;stroke-width:1.2;stroke-linecap:butt;stroke-linejoin:miter;stroke:rgb(0%,0%,0%);stroke-opacity:1;stroke-miterlimit:10;" d="M 84.699219 162.679688 L 99.175781 159.628906 "/>
<path style="fill:none;stroke-width:1.2;stroke-linecap:butt;stroke-linejoin:miter;stroke:rgb(0%,0%,0%);stroke-opacity:1;stroke-miterlimit:10;" d="M 53.34375 157.371094 L 49.53125 139.277344 "/>
<path style="fill:none;stroke-width:1.2;stroke-linecap:butt;stroke-linejoin:miter;stroke:rgb(0%,0%,0%);stroke-opacity:1;stroke-miterlimit:10;" d="M 53.34375 157.371094 L 57.15625 175.464844 "/>
<path style="fill:none;stroke-width:1.2;stroke-linecap:butt;stroke-linejoin:miter;stroke:rgb(0%,0%,0%);stroke-opacity:1;stroke-miterlimit:10;" d="M 53.34375 157.371094 L 35.25 161.183594 "/>
</g>
</svg>

<svg xmlns="http://www.w3.org/2000/svg" xmlns:xlink="http://www.w3.org/1999/xlink" width="300pt" height="300pt" viewBox="0 0 300 300"><defs><symbol overflow="visible"><path d="M.453 1.594v-7.938h4.5v7.938zm.5-.5h3.5v-6.938h-3.5zm0 0"/></symbol><symbol overflow="visible" id="a"><path d="M3.547-5.953c-.65 0-1.164.242-1.547.72-.375.48-.563 1.13-.563 1.952 0 .835.188 1.49.563 1.967.383.48.898.72 1.547.72.644 0 1.156-.24 1.53-.72.376-.476.564-1.132.564-1.968 0-.822-.187-1.474-.562-1.954-.375-.477-.887-.72-1.53-.72zm0-.734c.914 0 1.648.312 2.203.937.55.617.828 1.438.828 2.47 0 1.042-.277 1.87-.828 2.483-.555.617-1.29.922-2.203.922-.93 0-1.668-.305-2.22-.922C.774-1.41.5-2.237.5-3.28c0-1.033.273-1.853.828-2.47.55-.625 1.29-.938 2.22-.938zm0 0"/></symbol><symbol overflow="visible" id="b"><path d="M.89-6.563H2.08l2.906 5.485v-5.484h.86V0H4.656L1.75-5.484V0H.89zm0 0"/></symbol><symbol overflow="visible" id="c"><path d="M.89-6.563h.876v2.688H5v-2.688h.89V0H5v-3.125H1.766V0H.89zm0 0"/></symbol></defs><g><path fill="#fff" d="M0 0h300v300H0z"/><path d="M129.395 123.86l-2.872 8.788" stroke-width="1.2" stroke="#f00" stroke-miterlimit="10" fill="none"/><path d="M126.523 132.648l-2.87 8.79" stroke-width="1.2" stroke="#000" stroke-miterlimit="10" fill="none"/><path d="M133.53 125.21l-2.87 8.79" stroke-width="1.2" stroke="#f00" stroke-miterlimit="10" fill="none"/><path d="M130.66 134l-2.87 8.79" stroke-width="1.2" stroke="#000" stroke-miterlimit="10" fill="none"/><path d="M127.465 119.035h8v11h-8zm0 0" fill="#fff"/><use xlink:href="#a" x="127.465" y="127.698" fill="#f00"/><path d="M125.72 142.113l6.175 6.883" stroke-width="1.2" stroke="#000" stroke-miterlimit="10" fill="none"/><path d="M131.895 148.996l6.175 6.88" stroke-width="1.2" stroke="#00f" stroke-miterlimit="10" fill="none"/><path d="M125.72 142.113l-18.095 3.813" stroke-width="1.2" stroke="#000" stroke-miterlimit="10" fill="none"/><path d="M138.07 155.875l9.047-1.906" stroke-width="1.2" stroke="#00f" stroke-miterlimit="10" fill="none"/><path d="M147.117 153.97l9.047-1.907" stroke-width="1.2" stroke="#000" stroke-miterlimit="10" fill="none"/><path d="M131.07 150.375h14v11h-14zm0 0" fill="#fff"/><g fill="#00f"><use xlink:href="#b" x="131.07" y="159.038"/><use xlink:href="#c" x="138.048" y="159.038"/></g><path d="M156.164 152.063l3.774-8.442" stroke-width="1.2" stroke="#000" stroke-miterlimit="10" fill="none"/><path d="M159.938 143.62l3.777-8.436" stroke-width="1.2" stroke="#00f" stroke-miterlimit="10" fill="none"/><path d="M169.883 164.457l-13.72-12.394M171.43 159.992l-10.977-9.918" stroke-width="1.2" stroke="#000" stroke-miterlimit="10" fill="none"/><path d="M163.715 135.184l9.19.98" stroke-width="1.2" stroke="#00f" stroke-miterlimit="10" fill="none"/><path d="M172.906 136.164l9.196.98" stroke-width="1.2" stroke="#000" stroke-miterlimit="10" fill="none"/><path d="M165.09 139.707l7.355.785" stroke-width="1.2" stroke="#00f" stroke-miterlimit="10" fill="none"/><path d="M172.445 140.492l7.356.785" stroke-width="1.2" stroke="#000" stroke-miterlimit="10" fill="none"/><path d="M160.715 129.684h7v11h-7zm0 0" fill="#fff"/><use xlink:href="#b" x="160.715" y="138.347" fill="#00f"/><path d="M182.102 137.145l1.906 9.05" stroke-width="1.2" stroke="#000" stroke-miterlimit="10" fill="none"/><path d="M184.008 146.195l1.906 9.047" stroke-width="1.2" stroke="#00f" stroke-miterlimit="10" fill="none"/><path d="M195.863 124.797l-13.76 12.348" stroke-width="1.2" stroke="#000" stroke-miterlimit="10" fill="none"/><path d="M185.914 155.242l8.79 2.87" stroke-width="1.2" stroke="#00f" stroke-miterlimit="10" fill="none"/><path d="M194.703 158.113l8.79 2.87" stroke-width="1.2" stroke="#000" stroke-miterlimit="10" fill="none"/><path d="M185.914 155.242l-8.016 4.61" stroke-width="1.2" stroke="#00f" stroke-miterlimit="10" fill="none"/><path d="M177.898 159.852l-8.015 4.605" stroke-width="1.2" stroke="#000" stroke-miterlimit="10" fill="none"/><path d="M182.914 149.742h7v11h-7zm0 0" fill="#fff"/><use xlink:href="#b" x="182.914" y="158.405" fill="#00f"/><path d="M203.492 160.984l13.762-12.35M201.96 156.512l11.013-9.88M217.254 148.633l8.79 2.875" stroke-width="1.2" stroke="#000" stroke-miterlimit="10" fill="none"/><path d="M226.043 151.508l8.79 2.87" stroke-width="1.2" stroke="#00f" stroke-miterlimit="10" fill="none"/><path d="M217.254 148.633l-3.813-18.094" stroke-width="1.2" stroke="#000" stroke-miterlimit="10" fill="none"/><path d="M234.832 154.38l7.488-5.423" stroke-width="1.2" stroke="#00f" stroke-miterlimit="10" fill="none"/><path d="M242.32 148.957l7.49-5.422M240.516 171.973l-2.844-8.797" stroke-width="1.2" stroke="#000" stroke-miterlimit="10" fill="none"/><path d="M237.672 163.176l-2.84-8.797" stroke-width="1.2" stroke="#00f" stroke-miterlimit="10" fill="none"/><path d="M231.832 148.88h7v11h-7zm0 0" fill="#fff"/><use xlink:href="#b" x="231.832" y="157.542" fill="#00f"/><path d="M249.81 143.535l14.94 10.895M248.738 148.14l11.953 8.715M264.75 154.43l-2.87 8.79" stroke-width="1.2" stroke="#000" stroke-miterlimit="10" fill="none"/><path d="M261.88 163.22l-2.872 8.784M259.008 172.004l-9.246-.016" stroke-width="1.2" stroke="#00f" stroke-miterlimit="10" fill="none"/><path d="M249.762 171.988l-9.246-.015" stroke-width="1.2" stroke="#000" stroke-miterlimit="10" fill="none"/><path d="M257.164 167.652l-7.394-.01" stroke-width="1.2" stroke="#00f" stroke-miterlimit="10" fill="none"/><path d="M249.77 167.64l-7.4-.015" stroke-width="1.2" stroke="#000" stroke-miterlimit="10" fill="none"/><path d="M256.008 166.504h7v11h-7zm0 0" fill="#fff"/><use xlink:href="#b" x="256.008" y="175.167" fill="#00f"/><path d="M213.44 130.54l-17.577-5.743M210.332 134.102l-14.062-4.594M107.625 145.926l-12.348-13.762M103.152 147.457l-9.88-11.012M101.883 163.504l5.742-17.578M95.277 132.164l-18.093 3.816M77.184 135.98l-5.746 17.575M80.742 139.086l-4.594 14.062M71.438 153.555l12.35 13.76M71.438 153.555l-18.094 3.816M83.79 167.316l18.093-3.812M84.7 162.68l14.476-3.05M53.344 157.37l-3.813-18.093M53.344 157.37l3.812 18.095M53.344 157.37l-18.094 3.814" stroke-width="1.2" stroke="#000" stroke-miterlimit="10" fill="none"/></g></svg>
